symbols/web/looks_4/materialsymbolssharp/looks_4_24px.svg

<svg xmlns="http://www.w3.org/2000/svg" height="24" width="24"><path d="M3 21V3h18v18Zm2-2h14V5H5Zm0 0V5v14Zm8-2h2V7h-2v4h-2V7H9v6h4Z"/></svg>

<svg xmlns="http://www.w3.org/2000/svg" height="24" width="24"><path d="M3 21V3H21V21ZM5 19H19V5H5ZM5 19V5V19ZM13 17H15V7H13V11H11V7H9V13H13Z"/></svg>
